X:28
T: DORT DRUNTEN IM GARTEN DA IST EIN SCHOENES PARADIES
N: E0009B
O: Europa, Mitteleuropa, Deutschland, Hannover, Bantorf
R: Sage, Maerchen -, Zauber - Lied
M: 6/8
L: 1/16
K: G
D2 | G3GG2G2B2d2 | A6z4
D2 | A4A2A2d2c2 | B6z4
G2 | G2B2B2B4e2 | d6-d4
cB | A4A2A2d2c2 | B6-B4
GF | E4D2G4Be | d4F2G4

